mediabuilder/img/social/vk.svg

<svg width="36" height="36" viewBox="0 0 36 36" fill="none" xmlns="http://www.w3.org/2000/svg">
<path d="M32.1694 10.3745C32.3769 9.68535 32.1694 9.17993 31.1882 9.17993H27.9379C27.1108 9.17993 26.7329 9.61717 26.5254 10.0974C26.5254 10.0974 24.8728 14.1273 22.531 16.7404C21.7751 17.5007 21.4298 17.7408 21.0177 17.7408C20.8117 17.7408 20.5123 17.5007 20.5123 16.8115V10.3745C20.5123 9.54751 20.2737 9.17993 19.5845 9.17993H14.477C13.9612 9.17993 13.6499 9.56233 13.6499 9.92694C13.6499 10.7095 14.8208 10.8903 14.9409 13.0958V17.8802C14.9409 18.928 14.7527 19.1192 14.3377 19.1192C13.2364 19.1192 10.5567 15.0744 8.96635 10.4442C8.65658 9.54454 8.34385 9.18141 7.51384 9.18141H4.26497C3.33566 9.18141 3.15039 9.61865 3.15039 10.0989C3.15039 10.9615 4.25163 15.2301 8.28011 20.8756C10.9658 24.7307 14.7467 26.8205 18.1913 26.8205C20.2559 26.8205 20.5108 26.3566 20.5108 25.5562V22.6423C20.5108 21.7145 20.7079 21.5277 21.3616 21.5277C21.8418 21.5277 22.6688 21.7708 24.5971 23.6279C26.7996 25.8304 27.1642 26.819 28.4018 26.819H31.6507C32.5785 26.819 33.0424 26.3551 32.7756 25.4391C32.4836 24.5276 31.4313 23.2011 30.0351 21.6315C29.2763 20.7363 28.1424 19.7729 27.7971 19.2912C27.3154 18.6701 27.4547 18.3959 27.7971 17.8446C27.7986 17.8461 31.7574 12.2702 32.1694 10.3745V10.3745Z" fill="#2A87F0"/>
</svg>

<svg width="36" height="36" fill="none" xmlns="http://www.w3.org/2000/svg"><path d="M32.17 10.374c.207-.689 0-1.194-.982-1.194h-3.25c-.827 0-1.205.437-1.413.917 0 0-1.652 4.03-3.994 6.643-.756.76-1.101 1-1.513 1-.206 0-.506-.24-.506-.928v-6.438c0-.826-.238-1.194-.928-1.194h-5.107c-.516 0-.827.382-.827.747 0 .783 1.17.963 1.29 3.169v4.784c0 1.048-.187 1.24-.602 1.24-1.102 0-3.781-4.046-5.372-8.676-.31-.9-.622-1.263-1.452-1.263H4.265c-.93 0-1.115.438-1.115.918 0 .862 1.102 5.131 5.13 10.777 2.686 3.855 6.467 5.944 9.911 5.944 2.065 0 2.32-.463 2.32-1.264v-2.914c0-.927.197-1.114.85-1.114.48 0 1.308.243 3.236 2.1 2.203 2.202 2.567 3.191 3.805 3.191h3.249c.927 0 1.391-.464 1.125-1.38-.292-.911-1.345-2.238-2.74-3.808-.76-.895-1.894-1.858-2.239-2.34-.482-.62-.342-.895 0-1.446.002.001 3.96-5.575 4.372-7.47z" fill="#2A87F0"/></svg>
